16x16/apps/pgmodeler.svg

<svg xmlns="http://www.w3.org/2000/svg" width="16" height="16" version="1">
 <rect style="fill:#3a48a8" width="3" height="3" x="1" y="0"/>
 <rect style="fill:#878186" width="3" height="3" x="10" y="0"/>
 <rect style="fill:#3a48a8" width="3" height="3" x="13" y="3"/>
 <rect style="fill:#ffba52" width="3" height="3" x="13" y="10"/>
 <rect style="fill:#878186" width="3" height="3" x="10" y="13"/>
 <rect style="fill:#85d33a" width="3" height="3" x="3" y="11"/>
 <rect style="fill:#cb383c" width="3" height="3" x="0" y="8"/>
 <path style="fill:#00879d" d="M 4,0 V 3 H 0 v 5 h 3 v 3 h 3 v 5 h 4 v -3 h 3 v -3 h 3 V 6 H 13 10 V 3 0 Z"/>
 <rect style="fill:#85d33a" width="3" height="3" x="10" y="3"/>
 <path style="fill:#6fc0fc" d="M 4.1048559,1.1300767 C 5.4263963,0.89597318 7.0899383,0.97637673 8.4785618,1.383337 9.376713,1.6009817 9.998227,2.0526485 10.559054,2.660764 c 0.902609,1.0613684 1.446385,2.4294982 1.423116,3.6672553 0.116123,1.6418546 -0.338204,3.3455383 -1.267918,4.3737017 -0.422964,0.457156 -1.3359854,1.167095 -2.1612086,1.893359 0,0 -0.2188396,0.249555 -0.207098,0.398101 0.01758,0.222398 0.1537504,0.362724 0.2909696,0.507058 0.077852,0.08189 0.2017444,0.156197 0.3168652,0.227428 0.3166164,0.160937 0.2895576,0.547845 0.1792176,0.724538 C 8.8850534,14.695372 8.659539,14.826889 8.3462018,14.934302 7.9729786,15.065207 7.825993,15.000985 7.6006806,14.737183 7.3839198,14.499652 7.2274883,14.254633 7.0998023,13.99606 6.8241035,13.516468 6.7764535,13.075807 6.8435955,12.575347 c 0.072986,-0.226034 0.216132,-0.421361 0.4361639,-0.706626 0.3359756,-0.4012 0.6075792,-0.724746 0.922344,-1.23002 C 8.4186398,10.312472 8.1847994,10.240163 8.0365794,10.111966 7.294161,9.477054 6.5083383,8.8870753 6.0304263,8.1656398 6.6204567,7.5461044 6.7023635,6.8019076 6.8738707,6.0796935 6.1581475,7.4362768 5.7185131,8.3561432 4.3048239,7.940092 3.6983904,7.7042749 3.1915484,7.2879153 2.8476064,6.8955524 1.9099007,5.6760968 1.9967512,4.5358746 2.0062278,4.0653047 2.0187224,3.4611137 2.1586594,2.8540636 2.55557,2.2424676 2.9243448,1.5976608 3.461382,1.3325911 4.1048559,1.1300767 Z"/>
 <circle style="fill:#17191e" cx="9.5" cy="6.5" r=".5"/>
 <path style="fill:#f4f4f7" d="M 9.0127656,8.6447108 11,9.9491624 C 10.72846,9.9431124 10.372467,10.021679 9.9776851,9.9941174 9.1196406,9.9342108 8.0945869,9.7440742 8.0112152,9.4981219 7.9641602,9.1568479 8.0551952,8.8902334 8.4758042,8.6198708 8.7349369,8.4427111 8.7623179,8.4711061 9.0127656,8.6447145 Z"/>
</svg>

<svg xmlns="http://www.w3.org/2000/svg" width="16" height="16" version="1"><path style="fill:#3a48a8" d="M1 0h3v3H1z"/><path style="fill:#878186" d="M10 0h3v3h-3z"/><path style="fill:#3a48a8" d="M13 3h3v3h-3z"/><path style="fill:#ffba52" d="M13 10h3v3h-3z"/><path style="fill:#878186" d="M10 13h3v3h-3z"/><path style="fill:#85d33a" d="M3 11h3v3H3z"/><path style="fill:#cb383c" d="M0 8h3v3H0z"/><path style="fill:#00879d" d="M4 0v3H0v5h3v3h3v5h4v-3h3v-3h3V6h-6V0z"/><path style="fill:#85d33a" d="M10 3h3v3h-3z"/><path style="fill:#6fc0fc" d="M4.105 1.13C5.426.896 7.09.976 8.479 1.383c.898.218 1.52.67 2.08 1.278.903 1.061 1.446 2.43 1.423 3.667.116 1.642-.338 3.346-1.268 4.374-.423.457-1.336 1.167-2.161 1.893 0 0-.219.25-.207.398.018.223.154.363.29.507.079.082.203.156.318.228.316.16.29.548.179.724a1.921 1.921 0 0 1-.787.482c-.373.131-.52.067-.745-.197a3.13 3.13 0 0 1-.501-.74c-.276-.48-.324-.921-.256-1.422.073-.226.216-.421.436-.706.336-.401.607-.725.922-1.23.217-.327-.017-.399-.165-.527-.743-.635-1.529-1.225-2.007-1.946.59-.62.672-1.364.844-2.086-.716 1.356-1.155 2.276-2.57 1.86-.606-.236-1.112-.652-1.456-1.044-.938-1.22-.851-2.36-.842-2.83a3.363 3.363 0 0 1 .55-1.824c.368-.644.905-.91 1.549-1.112z"/><circle style="fill:#17191e" cx="9.5" cy="6.5" r=".5"/><path style="fill:#f4f4f7" d="M9.013 8.645 11 9.949c-.272-.006-.628.073-1.022.045-.858-.06-1.883-.25-1.967-.496-.047-.341.044-.608.465-.878.259-.177.286-.149.537.025z"/></svg>
